icons/tokens/0x0000000000085d4780B73119b644AE5ecd22b376/logo.svg

<svg xmlns="http://www.w3.org/2000/svg" width="32" height="32" viewBox="0 0 32 32">
  <g fill="none" fill-rule="evenodd">
    <path fill="#002868" d="M32,16 C32,13.90592 31.58336,11.81184 30.78208,9.87712 C29.9808,7.9424 28.79456,6.16704 27.3136,4.6864 C25.83296,3.20544 24.0576,2.0192 22.12288,1.21792 C20.18816,0.41664 18.09408,0 16,0 C13.90592,0 11.81184,0.41664 9.87712,1.21792 C7.9424,2.0192 6.16704,3.20544 4.6864,4.6864 C3.20544,6.16704 2.0192,7.9424 1.21792,9.87712 C0.41664,11.81184 0,13.90592 0,16 C0,18.09408 0.41664,20.18816 1.21792,22.12288 C2.0192,24.0576 3.20544,25.83296 4.6864,27.3136 C6.16704,28.79456 7.9424,29.9808 9.87712,30.78208 C11.81184,31.58336 13.90592,32 16,32 C18.09408,32 20.18816,31.58336 22.12288,30.78208 C24.0576,29.9808 25.83296,28.79456 27.3136,27.3136 C28.79456,25.83296 29.9808,24.0576 30.78208,22.12288 C31.58336,20.18816 32,18.09408 32,16 Z"/>
    <path fill="#FFF" d="M9.04003048 25.0419281C8.97984 25.0419281 8.9310781 24.987237 8.9310781 24.9276424 8.9310781 23.9141582 8.9310781 22.9002968 8.9310781 21.8868126 8.9310781 21.8272181 8.88231619 21.7729041 8.82250667 21.7729041 8.46098286 21.7729041 8.09945905 21.7729041 7.73793524 21.7729041 7.67698286 21.7729041 7.62250667 21.724625 7.62250667 21.6650305 7.62250667 21.4692737 7.62250667 21.273517 7.62250667 21.0773831 7.62250667 21.0177886 7.67774476 20.9634746 7.73793524 20.9634746 8.85031619 20.9634746 9.96269714 20.9634746 11.0750781 20.9634746 11.1352686 20.9634746 11.1901257 21.0170342 11.1901257 21.0773831 11.1901257 21.273517 11.1901257 21.4692737 11.1901257 21.6650305 11.1901257 21.724625 11.1352686 21.7729041 11.0750781 21.7729041 10.71584 21.7729041 10.356221 21.7729041 9.99698286 21.7729041 9.93679238 21.7729041 9.88193524 21.8268409 9.88193524 21.8868126 9.88193524 22.9002968 9.88193524 23.9141582 9.88193524 24.9276424 9.88193524 24.987237 9.83317333 25.0419281 9.77298286 25.0419281 9.52879238 25.0419281 9.2846019 25.0419281 9.04003048 25.0419281zM14.5211733 21.0773831C14.5211733 21.0177886 14.5699352 20.9634746 14.6301257 20.9634746 14.8724114 20.9634746 15.1146971 20.9634746 15.3569829 20.9634746 15.4171733 20.9634746 15.4720305 21.0170342 15.4720305 21.0773831 15.4720305 21.7691323 15.4720305 22.4608815 15.4720305 23.1526306 15.4720305 24.3826165 14.7695543 25.095865 13.6548876 25.095865 12.5466971 25.095865 11.8499352 24.3826165 11.8499352 23.1526306 11.8499352 22.4608815 11.8499352 21.7691323 11.8499352 21.0773831 11.8499352 21.0177886 11.8990781 20.9634746 11.9588876 20.9634746 12.2011733 20.9634746 12.443459 20.9634746 12.6857448 20.9634746 12.7463162 20.9634746 12.8007924 21.0170342 12.8007924 21.0773831 12.8007924 21.778939 12.8007924 22.4804949 12.8007924 23.1820507 12.8007924 23.7881799 13.115459 24.2192973 13.6609829 24.2192973 14.2065067 24.2192973 14.5211733 23.7881799 14.5211733 23.1820507 14.5211733 22.4804949 14.5211733 21.778939 14.5211733 21.0773831zM18.8099352 22.294922C18.7131733 22.294922 18.6826971 22.2587127 18.6461257 22.1870484 18.5188876 21.8932247 18.2400305 21.7072747 17.8164114 21.7072747 17.4346971 21.7072747 17.1139352 21.8392879 17.1139352 22.0912445 17.1139352 22.3673407 17.4110781 22.4812492 18.0647924 22.5589484 19.0579352 22.6770059 19.627459 22.9730927 19.627459 23.7523478 19.627459 24.6277839 18.851459 25.0894529 17.8590781 25.0894529 16.9988876 25.0894529 16.260221 24.6756858 16.1447924 23.8066618 16.1337448 23.7225505 16.1752686 23.6927532 16.260221 23.6927532 16.4823162 23.6927532 16.7044114 23.6927532 16.9265067 23.6927532 17.0110781 23.6927532 17.060221 23.7289626 17.084221 23.794592 17.1886019 24.0778546 17.484221 24.3045401 17.932221 24.3045401 18.3261257 24.3045401 18.6712686 24.1604571 18.6712686 23.8549409 18.6712686 23.4890757 18.308221 23.4234463 17.5809829 23.332923 16.7447924 23.2288211 16.16384 22.9851625 16.16384 22.2228805 16.16384 21.4613529 16.8244114 20.9159498 17.860221 20.9159498 18.7924114 20.9159498 19.4407924 21.4138282 19.5745067 22.1576283 19.5893638 22.2421167 19.5680305 22.2956764 19.4773638 22.2956764 19.2548876 22.2956764 19.0324114 22.2956764 18.8099352 22.2956764L18.8099352 22.294922zM22.0983162 20.9634746C23.3219352 20.9634746 24.2727924 21.7970437 24.2727924 23.0145826 24.2727924 24.2140168 23.3341257 25.0419281 22.0983162 25.0419281L20.4510781 25.0419281 20.4510781 25.0419281C20.3908876 25.0419281 20.3421257 24.987237 20.3421257 24.9276424L20.3421257 21.0773831 20.3421257 21.0773831C20.3421257 21.0177886 20.3908876 20.9634746 20.4510781 20.9634746L22.0983162 20.9634746 22.0983162 20.9634746zM22.092221 21.7721497L21.4080305 21.7721497 21.4080305 21.7721497C21.34784 21.7721497 21.2986971 21.8257094 21.2986971 21.8860583L21.2986971 24.1227391 21.2986971 24.1227391C21.2986971 24.1823336 21.34784 24.2306127 21.4080305 24.2306127L22.0983162 24.2306127 22.0983162 24.2306127 22.0983162 24.2317443C22.7588876 24.2317443 23.2731733 23.7153841 23.2731733 23.0017584 23.2731733 22.2885099 22.7581257 21.7721497 22.092221 21.7721497zM14.6263974 10.7153341C13.1911897 10.7153341 11.7559819 10.7153341 10.3207742 10.7153341 10.1619484 10.7153341 10.032 10.5861958 10.032 10.429419 10.032 9.60312454 10.032 8.77730659 10.032 7.95148864 10.032 7.79375884 10.1619484 7.6655736 10.3207742 7.6655736 14.1070852 7.6655736 17.8929148 7.6655736 21.6792258 7.6655736 21.8380516 7.6655736 21.968 7.79375884 21.968 7.95148864 21.968 8.77730659 21.968 9.60312454 21.968 10.429419 21.968 10.5861958 21.8380516 10.7153341 21.6792258 10.7153341 20.3551961 10.7153341 19.0306852 10.7153341 17.7066555 10.7153341 17.7066555 13.155619 17.7066555 15.7950913 17.7066555 18.4350402 17.7066555 18.591817 17.5767071 18.7209553 17.4178813 18.7209553 16.5838052 18.7209553 15.7492477 18.7209553 14.9151716 18.7209553 14.7563458 18.7209553 14.6263974 18.591817 14.6263974 18.4350402 14.6263974 15.7950913 14.6263974 13.155619 14.6263974 10.7153341z"/>
  </g>
</svg>

<svg viewBox="0 0 32 32"><g fill="none" fill-rule="evenodd"><path fill="#002868" d="M32 16c0-2.094-.417-4.188-1.218-6.123a16.047 16.047 0 00-3.468-5.19 16.047 16.047 0 00-5.191-3.47A16.055 16.055 0 0016 0c-2.094 0-4.188.417-6.123 1.218a16.047 16.047 0 00-5.19 3.468 16.047 16.047 0 00-3.47 5.191A16.055 16.055 0 000 16c0 2.094.417 4.188 1.218 6.123a16.047 16.047 0 003.468 5.19 16.047 16.047 0 005.191 3.47A16.055 16.055 0 0016 32c2.094 0 4.188-.417 6.123-1.218a16.047 16.047 0 005.19-3.468 16.047 16.047 0 003.47-5.191A16.055 16.055 0 0032 16z"/><path fill="#FFF" d="M9.04 25.042c-.06 0-.109-.055-.109-.114v-3.041c0-.06-.049-.114-.108-.114H7.738c-.061 0-.115-.048-.115-.108v-.588a.12.12 0 01.115-.114h3.337c.06 0 .115.054.115.114v.588c0 .06-.055.108-.115.108H9.997a.119.119 0 00-.115.114v3.04c0 .06-.049.115-.109.115H9.04zm5.481-3.965c0-.06.049-.114.11-.114h.726c.06 0 .115.054.115.114v2.076c0 1.23-.702 1.943-1.817 1.943-1.108 0-1.805-.713-1.805-1.943v-2.076c0-.06.05-.114.109-.114h.727c.06 0 .115.054.115.114v2.105c0 .606.314 1.037.86 1.037s.86-.43.86-1.037v-2.105zm4.289 1.218c-.097 0-.127-.036-.164-.108-.127-.294-.406-.48-.83-.48-.381 0-.702.132-.702.384 0 .276.297.39.95.468.994.118 1.563.414 1.563 1.193 0 .876-.776 1.337-1.768 1.337-.86 0-1.599-.413-1.714-1.282-.011-.084.03-.114.115-.114h.667c.084 0 .133.036.157.102.105.283.4.51.848.51.394 0 .74-.145.74-.45 0-.366-.364-.432-1.091-.522-.836-.104-1.417-.348-1.417-1.11 0-.762.66-1.307 1.696-1.307.932 0 1.58.498 1.715 1.242.014.084-.007.138-.098.138h-.667v-.001zm3.288-1.332c1.224 0 2.175.834 2.175 2.052 0 1.199-.939 2.027-2.175 2.027h-1.647c-.06 0-.109-.055-.109-.114v-3.85c0-.06.049-.115.11-.115h1.646zm-.006.81h-.684c-.06 0-.11.053-.11.113v2.237c0 .06.05.108.11.108h.69c.66 0 1.175-.516 1.175-1.23 0-.712-.515-1.229-1.18-1.229zm-7.466-11.058h-4.305a.289.289 0 01-.289-.286V7.951c0-.157.13-.285.289-.285h11.358c.16 0 .289.128.289.285v2.478c0 .157-.13.286-.289.286h-3.972v7.72c0 .157-.13.286-.29.286h-2.502a.289.289 0 01-.289-.286v-7.72z"/></g></svg>
